!! 00000] TT[WS
!!!OTL: Maruru Kaihua
!!!ARE: Asia, China, Shanxi Hequ
!! Ethnic Group: Han
!! WI, 293 (1)
!!!SCT: J0354
!!!YEM: Copyright 1995, estate of Helmut Schaffrath.
**kern
*ICvox
*Ivox
*M2/4
*k[b-e-]
*B-:
{8ddd
16ccc
16ddd
8ff
16ff
16gg
=1
16bb-
16ccc
16ddd
16ccc
8bb-
16gg
16ff
=2
8ddd
8ff
16gg
8ff
16dd
=3
2ccc}
=4
{8ddd
16ccc
16ddd
8ff
16ff
16gg
=5
16bb-
16ccc
16ddd
16ccc
8bb-
16gg
16ff
=6
8ddd
8ff
16gg
8ff
16dd
=7
2ff}
==
!!!AGN: Xiaodiao. Xinminge, Qingge, Xuanchuan
!! Neue Text. Politische Liede
!!!ONB: ESAC (Essen Associative Code) Database: CHINA
!!!AMT: simple duple
!!!AIN: vox
!!!EED: Helmut Schaffrath
!!!EEV: 1.0
*-
